src/assets/duotone/Send1.svg

<svg width="24" height="24" viewBox="0 0 24 24"  xmlns="http://www.w3.org/2000/svg">
<path opacity="0.4" d="M20.5002 22.7999H3.5002C3.1002 22.7999 2.7002 22.5 2.7002 22C2.7002 21.5 3.0002 21.2 3.5002 21.2H20.5002C20.9002 21.2 21.3002 21.5 21.3002 22C21.3002 22.5 20.9002 22.7999 20.5002 22.7999Z" />
<path d="M19.0004 18.1999C18.8004 18.1999 18.6004 18.0999 18.5004 17.9999L4.50039 3.9999C4.20039 3.6999 4.20039 3.2999 4.50039 2.9999C4.80039 2.6999 5.30039 2.6999 5.60039 2.9999L19.6004 16.9999C19.9004 17.2999 19.9004 17.7999 19.6004 18.0999C19.4004 18.1999 19.2004 18.1999 19.0004 18.1999Z" />
<path d="M5.0002 14.5C4.6002 14.5 4.2002 14.2 4.2002 13.7V3.49995C4.2002 3.09995 4.5002 2.69995 5.0002 2.69995H15.3002C15.7002 2.69995 16.1002 2.99995 16.1002 3.49995C16.1002 3.99995 15.8002 4.29995 15.3002 4.29995H5.8002V13.8C5.8002 14.2 5.4002 14.5 5.0002 14.5Z" />
</svg>

<?xml version="1.0" encoding="UTF-8"?>
<svg width="24" height="24" viewBox="0 0 24 24" xmlns="http://www.w3.org/2000/svg">
 <path d="m20.5 22.8h-17c-0.4 0-0.8-0.2999-0.8-0.7999s0.3-0.8 0.8-0.8h17c0.4 0 0.8 0.3 0.8 0.8s-0.4 0.7999-0.8 0.7999z" opacity=".4"/>
 <path d="m19 18.2c-0.2 0-0.4-0.1-0.5-0.2l-14-14c-0.3-0.3-0.3-0.7 0-1s0.8-0.3 1.1 0l14 14c0.3 0.3 0.3 0.8 0 1.1-0.2 0.1-0.4 0.1-0.6 0.1z"/>
 <path d="m5.0002 14.5c-0.4 0-0.8-0.3-0.8-0.8v-10.2c0-0.4 0.3-0.8 0.8-0.8h10.3c0.4 0 0.8 0.3 0.8 0.8s-0.3 0.8-0.8 0.8h-9.5v9.5c0 0.4-0.4 0.7-0.8 0.7z"/>
</svg>
